X:1
T:4 Mélodies, Op. 51
T:Larmes
T:Gabriel Fauré(1845-1924)
T:Jean Richepin (1849-1926 ) "La Mer"
T:4 Mélodies Op. 51 À Madame la Princesse Edmond de Polignac
T:1. Larmes
T:Creative Commons copyright waiver (CC0 1.0 Universal)
T:Creative Commons copyright waiver (CC0 1.0 Universal)
T:Creative Commons copyright waiver (CC0 1.0 Universal)
T:Creative Commons copyright waiver (CC0 1.0 Universal)
T:Creative Commons copyright waiver (CC0 1.0 Universal)
T:Creative Commons copyright waiver (CC0 1.0 Universal)
T:Creative Commons copyright waiver (CC0 1.0 Universal)
T:Creative Commons copyright waiver (CC0 1.0 Universal)
T:Creative Commons copyright waiver (CC0 1.0 Universal)
T:Creative Commons copyright waiver (CC0 1.0 Universal)
C:Gabriel Fauré
Z:Jean Richepin
Z:Creative Commons copyright waiver (CC0 1.0 Universal)
%%score 1 { ( 2 3 ) | ( 4 5 ) }
L:1/8
Q:1/4=69
M:3/4
K:Eb
V:1 treble nm="CHANT."
V:2 treble nm="PIANO."
V:3 treble 
V:4 bass 
V:5 bass 
V:1
"^Molto moderato." z6 | z2 z2 z!f! G | c =B/ B/ G3/2 G/ ^F3/2 F/ |!>(! G2!>)! G z z G/ G/ | %4
w: |Pleu-|rons nos cha- grins, cha- cun le|nô- te; U- ne|
 c3/2 =B/ G3/2 G/ z ^F/ F/ | G4 G2 | z2 !>!=B2 (3B =A c | =B4 z2 | %8
w: lar- me tom- be, puis u-|ne au- tre;|Toi, qui pleu- res-|tu?|
[Q:1/4=64] z2 z!>(! =B (=A/B/) c!>)! | =B2- B/ z/!p! B/ B/ d3/2 B/ | %10
w: ton doux * pa-|ys, _ tes pa- rents loin-|
 =B2-[Q:1/4=66] B/ z/!<(! d =e!<)! d |!>(! c4!>)! =B2 ||[K:E] z2 B2 (3B ^A B | c3 B ^A G | %14
w: tains, _ ta fi- an-|cé- e.|Moi, mon ex- is-|ten- ce dé- pen-|
 B3 ^A (3(AG) ^^F |!<(! G4- G!<)! G |!f! c ^B/ B/ G3/2 G/ ^^F3/2 F/ | G2 G z z G/ G/ | %18
w: sé- e en voeux * tra-|his _ Pleu-|rons nos cha- grins, cha- cun le|nô- tre; U- ne|
 c3/2 ^B/ G3/2 G/ z ^^F/ F/ |!>(! G4!>)! G2 | z2 z2!p! G2 | c2 B ^A[Q:1/4=72] B A | %22
w: lar- me tom- be, puis u-|ne au- tre.|Se-|mons dans la mer ces|
 =A3/2 =d/ d2 z2 |"^cresc." z _B (3B B =c _d c |!<(! =B =e e2!<)! ^e2 |!f![Q:1/4=74] ^e3 f g f | %26
w: pâ- les fleurs!|À no- tre san- glot qui|se la- men- te|El- le ré- pon-|
 c3 =d e d |[Q:1/4=70] F2 =G =D E D | C6 | z2 z2 z!p! A ||[K:Eb] d ^c/ c/ =A3/2 A/ ^G3/2 ^G/ | %31
w: dra par la tour-|men- te de flots hur-|leurs.|Pleu-|rons nos cha- grins, cha- cun le|
 =A4 A2 | z2 z2 z!mf! B/ B/ |!>(! e3/2 d/ B2!>)! B2 | z2 z2!p! _c3/2 c/ | B4 B2 | %36
w: nô- tre;|U- ne|lar- me tom- be,|Puis u-|ne au- tre;|
 z2 z"^cresc." =B (3B =A c | e3 e c3/2 c/ | d2- d z c3/2 c/ | _d3/2 d/ d2 (3d c =B | A4 G2 | %41
w: Peut- ê- tre toi-|mê- me, ô tri- ste|mer, _ Mer au|goût de larme âcre et sa-|lé- e,|
 z2 z2"^molto crescendo" c2 | d4 c e | d3 g e c |!f! (d4 =e2) |!<(! f3 f ^f3/2!<)! f/ |!ff! g6- | %47
w: Es-|tu de la|ter- re in- con- so-|lé- *|e le pleur a-|mer!|
 g6- | g2 z2 z2 | z6 | z6 |] %51
w: _||||
V:2
!f! c/[eg]/ z G/[_B,E]/ z!>)!!>(! !>!G,/[=B,E]/ z | c/[eg]/ z G/[_B,E]/ z!>)!!>(! !>!G,/[=B,E]/ z | %2
 c/[eg]/ z G/[_B,E]/ z !>!^F/[=B^d]/ z | G/[=B,=E]/ z G,/[_B,E]/ z =B,/[_EG]/ z | %4
 c/[eg]/ z G/[_B,E]/ z !>!^F/[=B^d]/ z | G/[=B,=E]/ z G,/[_B,E]/ z!<(! =B,/[_EG]/!<)! z | %6
 A/[_ce]/ z E/[_G,_C]/ z E/[^F=c]/ z | !>!G,/[=B,D]/ z D/[G=B]/ z!<(! _B/[=Bd]/!<)! z | %8
 A/[_ce]/ z!>(! E/[_G,_C]/ z!>)! E/[^F=c]/ z |!p! z (=B,/D/) z (B,/D/) z (B,/D/) | %10
 z (=B,/D/) z!<(! (B,/D/) z (B,/!<)!D/) |!>(! z (=A,/C/) z!>)! (^G,/C/) z (A,/=B,/) || %12
[K:E]!mf! x3/2 G,/ B,/E/B z2 | x3/2 G,/ B,/E/B z2 | x3/2 G,/ B,/^E/B z2 | %15
!<(! x G,/B,/ x B,/D/ x!<)! ^B,/[EG]/ |!f! c/[eg]/ z G/[=B,E]/ z =G/[=ce]/ z | %17
 _A/[=C=F]/ z ^G,/[B,^E]/ z ^B,/[=EG]/ z | c/[eg]/ z G/[=B,E]/ z =G/[=ce]/ z | %19
!>(! _A/[=C=F]/ z ^G,/[B,^E]/ z ^B,/[=EG]/!>)! z |!p! (c2 B^ABA | GcB^ABA |"_cresc." =A=d=cBcB | %23
 _B_e_d=c_dc | =B=e=d^cdc) |!f! z (^E-[E^e][Ff][Gg][Ff]) | z (C-[Cc][=D=d][Ee][Dd]) | z (F=G=DED) | %28
!ff! x2 C/F/A/F/ C/A,/[I:staff +1]F,/C,/ | %29
!<(![I:staff -1] x2 C/^E/A/E/!<)! C/[I:staff +1]A,/!p!^E,/C,/ || %30
[K:Eb][I:staff -1] d/[f=a]/ z =A/[=CF]/ z !>!^G/[^c^e]/ z | =A/[^C^F]/ z =A,/[=CF]/ z ^C/[=FA]/ z | %32
 d/[f=a]/ z =A/[=CF]/ z =G/[_Ad]/ z |!mf! B,/!>(!_G/B/G/ !courtesy!=D/G/B/G/ C/G/B/!>)!G/ | %34
!p! =B,/=G/=B/G/ B,/^F/B/^F/ B,/=E/B/E/ | _B,/_G/B/G/ D/G/B/G/ C/G/B/G/ | %36
 =B,/=G/=B/G/!<(! B,/^F/B/F/ B,/G/B/!<)!G/ |!mf! (c/A/E/C/ G/E/C/E/ A/F/C/F/ | %38
 B/^F/C/=A,/ F/C/A,/C/ G/C/G,/C/ | _A/=E/_D/G,/ E/D/G,/D/ F/C/[I:staff +1]A,/[I:staff -1]C/ | %40
[K:bass] E/=B,/A,/=D,/ B,/A,/D,/A,/ C/G,/C,/G,/ | %41
[K:treble]"^cresc." D/[I:staff +1][A,C]/D,/[A,C]/[I:staff -1] G/[I:staff +1][=B,D]/F,/[B,D]/[I:staff -1] C/[I:staff +1][E,A,]/C,/[E,A,]/ | %42
[I:staff -1] D/[I:staff +1][A,C]/D,/[A,C]/[I:staff -1] G/[I:staff +1][=B,D]/F,/[B,D]/[I:staff -1] C/[I:staff +1][E,A,]/C,/[E,A,]/ | %43
[I:staff -1] D/[I:staff +1][A,C]/D,/[A,C]/[I:staff -1] G/[I:staff +1][=B,D]/F,/[B,D]/[I:staff -1] C/[I:staff +1][E,A,]/C,/[E,A,]/ | %44
[I:staff -1] A/[CD]/A,/[CD]/ D/[I:staff +1][F,A,]/D,/[F,A,]/[I:staff -1] c/[=EB]/C/[EB]/ | %45
 F/[A,_C]/[I:staff +1]F,/[I:staff -1][A,C]/ _d/[F_c]/_D/[Fc]/ ^F/[I:staff +1][A,_C]/^F,/[A,C]/) | %46
!ff![I:staff -1] =c/[eg]/ z G/[=B,=E]/ z G,/[B,F]/ z | %47
 =E/[G=B]/ z[K:bass] =B,/[^D,G,]/ z =B,,/[^D,G,]/ z | %48
 C/[EG]/ z G,/[=B,,E,]/ z"^dim." G,/[B,,E,]/ z | G,/[=B,,E,]/ z G,/[B,,E,]/ z G,/[B,,E,]/ z | %50
!pp! [G,,C,E,G,]6 |] %51
V:3
 (!>!c=B) !>!G2 G,2 | (!>!c=B) !>!G2 G,2 | (!>!c=B) !>!G2 ^F2 | !>!G2 !>!G,2 (=B,G) | %4
 (!>!c=B) !>!G2 ^F2 | !>!G2 !>!G,2 (=B,E) | (!>!AG) !>!E2 (!>!ED) | G,2 (D=B _B=A) | %8
 (_AG) E2 (ED) | x =B,2 =A,2 ^G, | x =B,2 =A,2 ^G, | x =A,2 ^G, x A, ||[K:E] x6 | x6 | x6 | x6 | %16
 (c^B) G2 =G2 | _A2 G,2 (^B,G) | (c^B) G2 =G2 | _A2 G,2 (^B,E) | E/C/ x E/C/ x G/^^C/ x | %21
 E/^C/ x E/C/ x G/^^C/ x | =F/=D/ x F/D/ x A/D/ x | _G/_E/ x _G/_E/ x _B/=E/ x | %24
 =G/=E/ x G/E/ x B/^E/ x | x6 | x6 | x6 | x6 | x5 A ||[K:Eb] (!>!d^c) !>!=A2 ^G2 | %31
 !>!=A2 !>!=A,2 (^CA) | (!>!d^c) (=A^G =G_G) | B,2 D2 C2 | x6 | B,2 D2 C2 | =B,2 B,2 B,2 | %37
x>d G2 A2 |x>=A ^F2 G2 |x>G =E2 F2 |[K:bass]x>=D =B,2 C2 |[K:treble] D2 x2 C2 | D2 x2 C2 | %43
 D2 x2 C2 | A2 D2 c2 | F2 _d2 ^F2 |(!>!x>=B) !>!G2 (!>!G,!>!=B,) | %47
(!>!x>^D)[K:bass] !>!=B,2 (=B,,!>!G,) |!>!x>=B,!>!x>G,,!>!x>G,, |!>!x>G,,!>!x>G,,!>!x>G,, | x6 |] %51
V:4
 C/[EG]/ z G,/[_B,,E,]/ z G,,/[=B,,E,]/ z | C/[EG]/ z G,/[_B,,E,]/ z G,,/[=B,,E,]/ z | %2
 C/[EG]/ z G,/[_B,,E,]/ z ^F,/[=B,^D]/ z | G,/[=B,,=E,]/ z G,,/[_B,,E,]/ z =B,,/[_E,G,]/ z | %4
 C/[EG]/ z G,/[_B,,E,]/ z ^F,/[=B,^D]/ z | G,/[=B,,=E,]/ z G,,/[_B,,E,]/ z =B,,/[_E,G,]/ z | %6
 A,/[_CE]/ z E,/[_G,,_C,]/ z E,/[^F,=C]/ z | !>!G,,/D,/ z!<(! D,/[G,=B,]/ z _B,/[=B,D]/!<)! z | %8
 A,/[_CE]/ z E,/[_G,,_C,]/ z E,/[^F,=C]/ z | (G,,/D,/) z (!courtesy!=F,,/D,/) z (=E,,/=B,,/) z | %10
 (G,,/D,/) z (F,,/D,/) z (=E,,/=B,,/) z | (F,,/D,/) z (=E,,/D,/) z (F,,/D,/) z || %12
[K:E]!ped! D,,/G,,/D,/ x/ x3 x!ped-up! |!ped! C,,/G,,/E,/ x/ x3 x!ped-up! | %14
!ped! C,,/G,,/^E,/ x/ x3 x!ped-up! | G,,/D,/ x D,/G,/ x G,/^B,/ x | %16
 C/[EG]/ z G,/[=B,,E,]/ z =G,/[=CE]/ z | _A,/[=C,=F,]/ z ^G,,/[B,,^E,]/ z ^B,,/[=E,G,]/ z | %18
 C/[EG]/ z G,/[=B,,E,]/ z =G,/[=CE]/ z | _A,/[=C,=F,]/ z ^G,,/[B,,^E,]/ z ^B,,/[=E,G,]/ z | %20
 x C/G,/ x C/G,/ x ^^C/G,/ | x ^C/G,/ x C/G,/ x ^^C/G,/ | x =D/A,/ x D/A,/ x D/A,/ | %23
 x _E/_B,/ x E/B,/ x =E/B,/ |!<(! x =E/=B,/ x E/B,/ x ^E/!<)!B,/ | %25
!ped! (!>!A,,,/C,,/F,,/A,,/ A,,/C,/F,/A,/ F,/C,/A,,)!ped-up! | %26
!ped! (!>!B,,,/=D,,/=G,,/B,,/ B,,/=D,/=G,/B,/ G,/D,/B,,)!ped-up! | %27
!ped! (_B,,,/=D,,/=G,,/_B,,/ B,,/=D,/=G,/_B,/ G,/D,/B,,)!ped-up! | %28
 F,,/C,/F,/[I:staff -1]A,/!ped![I:staff +1] !>!C,,4!ped-up! | %29
!>(! A,,/C,/^E,/A,/!ped!!>)! !>!C,,4!ped-up! ||[K:Eb] D/[F=A]/ z =A,/[=C,F,]/ z ^G,/[^C^E]/ z | %31
 !>!=A,/[^C,^F,]/ z =A,,/[=C,F,]/ z ^C,/[=F,A,]/ z | %32
 D/[F=A]/ z!<(! =A,/[=C,F,]/ z =G,/[_A,D]/!<)! z | %33
 ([E,,E,]>[!courtesy!=D,,!courtesy!=D,]) [B,,,B,,]4 | %34
 ([!courtesy!_E,,!courtesy!_E,]>[D,,D,]) [G,,,G,,]4 | ([_E,,_E,]>[D,,D,]) [B,,,B,,]4 | %36
 ([E,,E,]>[D,,D,]) [G,,,G,,]4 | [F,,,F,,]4 [E,,,E,,]2 | [F,,,F,,]4 [E,,,E,,]2 | %39
 [B,,,B,,]4 [A,,,A,,]2 | [F,,,F,,]4 [E,,,E,,]2 | [F,,,F,,]2 [G,,,G,,]2 [A,,,A,,]2 | %42
 [F,,,F,,]2 [G,,,G,,]2 [A,,,A,,]2 | [F,,,F,,]2 [G,,,G,,]2 [A,,,A,,]2 | %44
 [F,,,F,,]2 [B,,,B,,]2 [G,,,G,,]2 | [_D,,_D,]2 [A,,,A,,]2 [E,,E,]2 | %46
 =C/[EG]/ z G,/[=B,,=E,]/ z G,,/[B,,E,]/ z | =E,/[G,=B,]/ z =B,,/[^D,,G,,]/ z =B,,,/[^D,,G,,]/ z | %48
 C,/[E,G,]/ z G,,/[=B,,,E,,]/ z G,,/[B,,,E,,]/ z | %49
 G,,/[=B,,,E,,]/ z G,,/[B,,,E,,]/ z G,,/[B,,,E,,]/ z |!8vb(! [C,,,G,,,C,,]6!8vb)! |] %51
V:5
 (!>!C=B,) !>!G,2 !>!G,,2 | (!>!C=B,) !>!G,2 !>!G,,2 | (!>!C=B,) !>!G,2 !>!^F,2 | %3
 G,2 !>!G,,2 (=B,,G,) | (!>!C=B,) !>!G,2 !>!^F,2 | !>!G,2 !>!G,,2 (=B,,E,) | %6
 ((!>!A,G,)) E,2 (!>!E,D,) | G,,2 (D,=B, _B,=A,) | (_A,G,) E,2 (E,D,) | G,,2 F,,2 =E,,2 | %10
 G,,2 F,,2 =E,,2 | F,,2 =E,,2 F,,2 ||[K:E] !>!D,,6 | !>!C,,6 | !>!C,,6 | !>!G,,2 !>!D,2 !>!G,2 | %16
 (C^B,) G,2 =G,2 | _A,2 G,,2 (^B,,G,) | (C^B,) G,2 =G,2 | _A,2 G,,2 (^B,,G,) | ^A,,4 ^E,2 | %21
 ^A,,4 ^E,2 | B,,4 ^F,2 | =C,4 =G,2 | ^C,4 ^G,2 | x6 | x6 | x6 | !>!F,,2 x4 | !>!A,,2 x4 || %30
[K:Eb] (!>!D^C) !>!=A,2 !>!^G,2 | =A,2 !>!=A,,2 (^C,A,) | (!>!D^C) (=A,^G, =G,_G,) | x6 | x6 | x6 | %36
 x6 | x6 | x6 | x6 | x6 | x6 | x6 | x6 | x6 | x2 z4 |{/[G,,,G,,]}(!>!x>=B,) G,2 !>!G,,=B,, | %47
(!>!x>^D,) !>!=B,,2 =B,,,!>!G,, |!>!x>=B,,!>!x>G,,,!>!x>G,,, |!>!x>G,,,!>!x>G,,,!>!x>G,,, | %50
!8vb(! x6!8vb)! |] %51

